X: 49
T:Irishman's Heart to the Ladies, The
T:A Health to the Ladies
M:6/8
L:1/8
R:Double Jig
K:A
a[|:ecA BAF|AFE EFA|Bdc BAB|cBB B2a|!
ecA BAF|AFE EFA|Bdc BAB|1cAA A2a:|2cAA A2B|!
|:cee dff|cee ecA|Ace a2f|ecA B2A|!
cee dff|cee ecA|Bdc BAB|1cAA A2B:|2cAA A2a|]!
